X:317
%%etbk:tnset id:97,pos:4,rep:3x,ant:
%%etbk:tnset id:257,pos:11,rep:2x-Stop,ant:
%%etbk:tnset id:265,pos:2,rep:2x,ant:Box erst ab 1.x B-Teil
%%etbk:tnset id:342,pos:3,rep:3x,ant:
%%etbk:wsite http://www.thesession.org/tunes/display/467
%%etbk:pldat 2016-06-23T18:15,2016-06-21T15:57,2016-06-20T17:56,2016-05-05T11:51,2016-05-04T16:05,2016-05-04T15:00,2016-05-03T16:55,2016-05-02T18:35,2016-04-09T15:20,2016-04-08T18:45,2016-04-07T16:10,2016-04-05T16:04,2016-04-02T14:17,2016-03-31T15:56,2016-03-30T16:33,2016-03-28T15:00,2016-03-11T17:02,2016-03-09T15:36,2016-03-07T18:47,2016-03-05T13:24,2016-02-29T19:36,2016-02-16T17:17,2015-12-11T17:56,2015-12-10T18:42,2015-12-10T17:54,2015-12-09T15:34,2015-12-08T15:04,2015-12-07T18:20,2015-12-06T13:49,2015-12-03T18:37,2015-12-02T16:31,2015-12-01T15:51,2015-11-04T16:21,2015-11-03T17:23,2015-11-03T15:51,2015-11-02T18:02,2015-10-29T18:45,2015-10-28T15:26,2015-10-27T15:40,2015-10-24T13:51,2015-10-20T17:15,2015-10-08T18:50,2015-10-06T15:08,2015-10-05T18:22,2015-09-30T16:09,2015-09-09T17:21,2015-09-06T15:05,2015-06-23T18:29,2015-05-28T18:19,2015-04-22T16:45,2015-03-12T18:38,2015-03-09T17:43,2015-02-16T19:24,2015-01-27T16:20,2014-11-05T18:16,2014-11-02T15:08,2014-10-30T18:45,2014-10-29T16:15,2014-10-29T15:30,2014-10-28T15:59,2014-10-27T18:50,2014-10-25T15:02,2014-10-13T18:40,2014-09-04T18:36,2014-09-03T18:49,2014-09-02T18:39,2014-09-01T18:43,2014-08-31T14:00,2014-08-28T18:39,2014-08-27T19:00,2014-08-26T16:51,2014-08-24T11:57,2014-08-21T18:27,2014-08-19T18:09,2014-08-14T19:38,2014-08-13T19:51,2014-08-12T19:23,2014-08-11T19:40,2014-08-10T11:38,2014-08-03T15:03,2014-07-31T18:10,2014-07-23T18:08,2014-07-02T10:27,2014-06-22T16:07,2014-06-13T15:19,2014-03-04T18:19,2014-03-02T16:17,2014-02-26T16:34,2014-01-22T15:39,2014-01-21T16:45,2014-01-20T18:19,2014-01-19T13:09,2014-01-18T13:50,2014-01-17T17:55,2014-01-15T15:51,2014-01-12T13:36,2014-01-09T18:05,2014-01-07T15:38,2014-01-06T18:52,2013-10-30T15:30,2013-10-29T15:25,2013-10-28T18:30,2013-10-24T18:29,2013-10-18T15:16,2013-10-17T18:50,2013-10-14T18:51,2013-10-14T18:01,2013-10-09T16:28,2013-10-09T15:50
T: Leitrim Fancy, The
Z: Piano Box Version by Martin Fleischmann
H: Created 2013-02-19 /  Last Modified 2013-02-19
M: 6/8
L: 1/8
R: jig
K: Edor
|: "em"!3!G!2!G!3!G !2!FGF | !1!E2!5!B !5!BAB | !3!G!5!BG !2!F!4!AF | "D"!1!D!2!F!4!A !4!A!2!F!1!D |
"em"!3!G{A}!3!G!3!G !2!FGF | !1!E2!3!B !3!BAB  | "G"!1!GA!3!B !5!dBG | "D"!2!AA!1!G !3!FE!1!D :|
|: "G"!1!GA!3!B !4!d!3!d!4!d | !5!e!4!d!3!B !4!d!3!B!2!A | !1!GA!3!B !5!dBG | "D"!2!AA!1!G !3!FE!1!D |
"G"!1!GA!3!B !4!d2d | !5!e!4!d!3!B !1!def | !4!gfe !1!d!3!BG | "D"!2!AA!1!G !3!FE!1!D :|


